X: 2366
T: Báisteach Ar An Séipéal
R: reel
M: 4/4
K: Edorian
|:"Em" E2 BB ABAG|E2 AE"D" GFDF|"Em" E2 BB AFGA|1 dcBA"D" FGAF:|2 dcBA"A" FABc||
"D" d2 de f2 fg|fdcB"A" AGFE|"D" D2 DE F2 GA|"G" BDEF"A" GABc|
"D" d2 de f2 fg|fdef adef|"G" gddg fedB|"A" dABA FGAF||

